X:682
T:The Sixteenth of November
C:Charles Bolton, 1977
L:1/4
M:2/2
S:Colin Hume's website,  colinhume.com  - chords can also be printed below the stave.
Q:1/2=110
K:F
P:A
|: "F"A2 "Gm"B/A/G/F/ | "Am"A/B/c- "Bb"cd/B/ | "Cm"cd/B/ "F7"cd/_e/ | "Gm"f/_e/d/c/ "C7"BA/G/ |
"F"AB/c/ "Am"B/A/G/F/ | "Dm"d/e/f- "G7"fg/d/ | "C"e(3d/e/f/ "F"e/c/"G7"d/=B/ |1 "C"c3 _B :|2 "C"c4 |
P:B
"Am"A2 "Bb"B/A/G/F/ | "Cm"c/d/_e- "D7"ed/A/ | "Gm"Bd/A/ "Cm"B(3A/B/c/ | "D7"B/A/G/^F/ "Gm"G"D7"A |
"Gm"B2 "Cm"c/B/A/G/ | "Dm"d/e/f- "G7"fg/d/ | "C"e(3d/e/f/ "F"e/c/"G7"d/=B/ | "C"c4 |
"Ab"c2 "Bbm"d/c/B/_A/ | "Eb"Bc/_d/ "Fm"c/B/_A/F/ | "Eb"G_A/F/ "G7"GF | "C"=E/D/C- "C7"C-"F"C |
"Gm"B2 "C7"c/B/A/G/ | "Am"AB/c/ "Dm"B/A/B/c/ | "Gm"d/e/f/B/ "Bb"A/F/"C7"G/E/ | "F"F4 |]

